img/index/index_QianHe_logoSeal.svg

<svg width="45" height="124" viewBox="0 0 45 124" fill="none" xmlns="http://www.w3.org/2000/svg"><g clip-path="url(#clip0_5_35)"><path d="M21.8103 24.1291C21.1451 24.1464 20.7853 24.2396 20.5049 23.9126C20.2635 23.6303 20.6326 22.2054 20.6826 22.0281C21.0017 20.8936 21.6651 20.0679 22.6032 19.3618C23.1842 18.9242 23.8032 18.6064 24.4628 18.3634C24.9818 18.1725 25.5508 18.0245 26.0994 18.019C27.4465 18.0081 28.7982 18.0391 30.1397 18.1533C31.0315 18.2291 31.8235 18.6703 32.5664 19.1645C33.635 19.8751 34.3862 20.8343 34.8007 22.0345C34.9247 22.3935 35.0051 22.7881 35.0014 23.1654C34.994 23.9427 34.9857 24.732 34.8423 25.491C34.747 25.9943 34.4251 26.6164 34.1734 27.0823C33.7534 27.7856 33.3879 28.1373 32.8541 28.6644C31.9021 29.6043 30.642 30.0053 29.2968 30.0017C24.7922 29.9898 20.2875 30.0099 15.7829 29.9797C15.2555 29.9761 14.7004 29.8007 14.2119 29.587C13.5116 29.28 12.8029 28.9366 12.2052 28.4735C11.5012 27.929 10.8674 27.2823 10.4779 26.4483C9.95057 25.3175 9.95797 24.1172 10.0422 22.9297C10.1041 22.0428 10.5195 21.2271 11.0867 20.5484C11.5678 19.9738 12.1321 19.4285 12.7622 19.0256C13.3385 18.6575 14.0269 18.4255 14.7013 18.2419C16.1326 17.8537 17.24 18.0583 18.6167 18.0208C18.6675 18.019 18.6851 18.0227 18.8063 18.0199C18.8063 18.441 18.8396 18.8978 18.7989 19.3271C18.7897 19.4248 18.7878 19.5774 18.6564 19.581C17.8145 19.5865 16.7358 19.6093 15.8911 19.5828C14.8984 19.5518 14.0426 19.9135 13.2627 20.4543C11.9008 21.3988 11.3661 22.7443 11.4734 24.3511C11.5187 25.0371 11.7241 25.6929 12.1256 26.2629C12.8195 27.2476 13.7253 27.9683 14.9113 28.3026C15.0547 28.3428 15.2148 28.3355 15.3674 28.3355C20.0877 28.3374 24.807 28.3447 29.5272 28.3346C30.7947 28.3319 31.7504 27.6806 32.4813 26.7269C32.8439 26.2538 33.2381 25.703 33.3213 25.1439C33.4647 24.1811 33.56 23.1946 33.1594 22.2108C32.7496 21.207 32.0159 20.5337 31.1416 20.0176C30.5199 19.6504 29.8001 19.4157 29.0369 19.4202C28.0682 19.4266 27.0996 19.4175 26.1309 19.4221C25.1511 19.4257 24.3379 19.855 23.5672 20.4013C22.6597 21.0444 22.2711 21.9405 21.9824 22.9498C21.8529 23.402 21.8344 23.6102 21.8094 24.13L21.8103 24.1291Z" fill="#B04B19"></path><path d="M18.8197 20.458C18.8197 20.9458 18.8197 21.3541 18.8197 21.7624C18.8197 22.0529 18.6707 22.1461 18.3821 22.1424C17.5059 22.1324 16.6279 22.1899 15.7546 22.1415C14.8433 22.0903 13.9496 23.3701 14.2789 24.3411C14.5075 25.0152 15.0487 25.3888 15.613 25.7405C15.7176 25.8053 16.838 25.7926 16.973 25.7926C21.2769 25.7953 24.6242 25.7962 28.9281 25.7944C29.6784 25.7944 30.5065 24.9677 30.5333 24.2278C30.5592 23.5217 30.4852 22.8659 29.7728 22.4822C29.5461 22.3607 29.3084 22.1844 29.0697 22.1744C28.1343 22.136 27.1953 22.136 26.259 22.1561C25.4402 22.1735 24.627 23.0321 24.6168 23.8469C24.6131 24.1502 24.5928 24.4562 24.6214 24.7567C24.6668 25.2381 24.3226 25.4144 23.9757 25.5085C23.6111 25.6062 23.254 25.5167 23.0366 25.1367C22.4889 24.1803 22.7905 23.2924 23.2476 22.4164C23.6963 21.5569 24.0599 21.1778 24.9092 20.817C25.1525 20.7138 25.8861 20.6306 26.1572 20.6352C27.3479 20.6544 28.5497 20.6115 29.7228 20.7713C30.2067 20.8371 30.7461 21.1933 31.1171 21.5715C31.6352 22.0136 31.8554 22.6576 32.0126 23.2824C32.2393 24.1821 32.1597 25.2792 31.6352 26.0593C31.4335 26.3589 31.2993 26.4977 31.0107 26.7243C30.3816 27.2185 29.6877 27.4349 28.9586 27.4386C24.639 27.4605 20.3194 27.4404 15.9998 27.4614C15.2485 27.4651 14.6805 27.0878 14.1642 26.6841C12.7034 25.5423 12.5072 24.2927 12.9569 22.6713C13.2067 21.7706 13.8811 21.0855 14.7776 20.7046C15.2837 20.4242 15.8517 20.4617 16.3744 20.4598C17.171 20.4571 17.9676 20.4598 18.8197 20.4598V20.458Z" fill="#B04B19"></path></g><path d="M23.388 53.408L23.604 54.08H29.436V53.408H23.388ZM29.004 53.408C24.9 59.168 22.332 61.688 22.548 63.728C22.668 65.624 23.868 66.512 26.868 66.512H29.916C32.7 66.512 34.02 65.888 34.02 64.76C34.02 64.232 33.828 64.064 32.916 63.776L32.964 60.704L32.676 60.68C32.388 62.024 32.028 63.128 31.692 63.728C31.524 64.04 31.188 64.088 29.94 64.088H27.108C25.956 64.088 25.308 63.968 25.26 63.392C25.14 62.384 27.036 59.792 31.332 54.584C31.884 54.56 32.244 54.416 32.46 54.2L29.892 52.088L28.74 53.408H29.004ZM11.22 48.032L11.412 48.704H22.308C22.644 48.704 22.908 48.584 22.98 48.32C22.02 47.432 20.436 46.136 20.436 46.136L19.044 48.032H11.22ZM11.124 61.448L11.316 62.12H22.236C22.572 62.12 22.836 62 22.884 61.736C21.948 60.872 20.388 59.576 20.388 59.576L18.996 61.448H11.124ZM15.42 44.648V51.44H18.156V45.608C18.78 45.512 18.972 45.272 18.996 44.96L15.42 44.648ZM13.356 57.8V58.472H20.412V57.8H13.356ZM13.332 54.368V55.04H20.412V54.368H13.332ZM18.804 50.984V59.264H19.236C20.052 59.264 21.324 58.784 21.372 58.616V52.04C21.804 51.944 22.116 51.752 22.26 51.584L19.764 49.688L18.564 50.984H18.804ZM12.252 50.984V59.672H12.612C13.668 59.672 14.772 59.12 14.772 58.856V51.656H20.46V50.984H14.892L12.252 49.904V50.984ZM15.396 58.112V67.16H15.9C17.316 67.16 18.132 66.728 18.156 66.608V58.112H15.396ZM24.78 49.352V50.024H33.18C33.516 50.024 33.756 49.904 33.828 49.64C32.868 48.728 31.236 47.384 31.236 47.384L29.796 49.352H24.78ZM24.612 44.648C24.204 47.936 23.148 51.272 21.948 53.456L22.212 53.648C24.588 52.064 26.508 49.616 27.804 46.28C28.356 46.28 28.644 46.064 28.74 45.752L24.612 44.648ZM18.444 88.848L18.204 88.992C19.044 90.096 20.004 91.728 20.172 93.144C22.38 94.92 24.66 90.6 18.444 88.848ZM18.564 100.344V80.808L15.828 81.888V101.16H16.332C17.676 101.16 18.564 100.536 18.564 100.344ZM25.98 98.592V83.256H31.284V82.584H26.1L23.196 81.36V99.576H23.676C24.876 99.576 25.98 98.904 25.98 98.592ZM29.172 82.584H29.436V99.192H29.892C30.876 99.192 32.196 98.616 32.244 98.424V83.736C32.748 83.616 33.108 83.424 33.252 83.208L30.516 81.072L29.172 82.584ZM31.404 95.952H24.444V96.648H31.404V95.952ZM18.132 86.952V86.568H15.276C14.556 90.216 13.14 94.248 11.052 97.032L11.316 97.296C14.676 94.632 17.028 91.128 18.132 86.952ZM22.908 81.36L19.932 78.624C18.06 79.824 14.364 81.48 11.412 82.368L11.484 82.68C14.892 82.536 18.828 81.96 21.324 81.336C22.068 81.624 22.62 81.6 22.908 81.36ZM20.604 84.576L19.236 86.568H11.412L11.604 87.24H22.452C22.812 87.24 23.052 87.12 23.124 86.856C22.212 85.944 20.604 84.576 20.604 84.576Z" fill="#B04B19"></path><rect x="1.25" y="1.25" width="42.5" height="121.5" rx="6.75" stroke="#B04B19" stroke-width="2.5"></rect><defs><clipPath id="clip0_5_35"><rect width="25" height="12" fill="white" transform="translate(10 18)"></rect></clipPath></defs></svg>

<svg width="45" height="124" fill="none" xmlns="http://www.w3.org/2000/svg"><g clip-path="url(#a)" fill="#B04B19"><path d="M21.81 24.13c-.665.016-1.025.11-1.305-.217-.241-.283.128-1.708.178-1.885.319-1.134.982-1.96 1.92-2.666a7.156 7.156 0 0 1 1.86-.999c.519-.19 1.088-.338 1.636-.344 1.348-.01 2.7.02 4.04.134.893.076 1.684.517 2.427 1.012 1.069.71 1.82 1.67 2.235 2.87.124.358.204.753.2 1.13-.007.778-.015 1.567-.159 2.326-.095.503-.417 1.125-.669 1.591-.42.704-.785 1.055-1.319 1.582-.952.94-2.212 1.341-3.557 1.338-4.505-.012-9.01.008-13.514-.022-.527-.004-1.083-.18-1.571-.393-.7-.307-1.41-.65-2.007-1.113-.704-.545-1.338-1.192-1.727-2.026-.527-1.13-.52-2.33-.436-3.518.062-.887.478-1.703 1.045-2.382.48-.574 1.045-1.12 1.675-1.522.576-.369 1.265-.6 1.94-.784 1.43-.388 2.538-.184 3.915-.221.05-.002.068.002.19-.001 0 .421.033.878-.008 1.307-.01.098-.011.25-.143.254-.841.006-1.92.028-2.765.002-.993-.031-1.848.33-2.628.871-1.362.945-1.897 2.29-1.79 3.897.046.686.251 1.342.653 1.912.694.985 1.6 1.705 2.785 2.04.144.04.304.032.456.032 4.72.002 9.44.01 14.16 0 1.268-.003 2.223-.654 2.954-1.608.363-.473.757-1.024.84-1.583.144-.963.239-1.95-.162-2.933-.41-1.004-1.143-1.677-2.017-2.193-.622-.368-1.342-.602-2.105-.598-.969.007-1.937-.003-2.906.002-.98.004-1.793.433-2.564.98-.907.642-1.296 1.538-1.585 2.548-.13.452-.148.66-.173 1.18h.001Z"/><path d="M18.82 20.458v1.304c0 .29-.15.384-.438.38-.876-.01-1.754.048-2.627 0-.912-.052-1.805 1.228-1.476 2.2.229.673.77 1.047 1.334 1.399.105.064 1.225.052 1.36.052 4.304.002 7.651.003 11.955.001.75 0 1.578-.826 1.605-1.566.026-.706-.048-1.362-.76-1.746-.227-.121-.465-.298-.703-.308a45.024 45.024 0 0 0-2.811-.018c-.819.018-1.632.876-1.642 1.69-.004.304-.024.61.004.91.046.482-.298.658-.645.753-.365.097-.722.008-.94-.372-.547-.957-.245-1.845.212-2.72.448-.86.812-1.24 1.661-1.6.244-.103.977-.186 1.248-.182 1.19.02 2.393-.024 3.566.136.484.066 1.023.422 1.394.8.518.443.738 1.087.896 1.711.226.9.147 1.997-.378 2.777a2.47 2.47 0 0 1-.624.665c-.63.494-1.323.71-2.052.715-4.32.021-8.64.001-12.96.022-.75.004-1.319-.373-1.835-.777-1.46-1.142-1.657-2.391-1.207-4.013.25-.9.924-1.585 1.82-1.966.507-.28 1.075-.243 1.597-.245.797-.003 1.594 0 2.446 0v-.002Z"/></g><path d="m23.388 53.408.216.672h5.832v-.672h-6.048Zm5.616 0c-4.104 5.76-6.672 8.28-6.456 10.32.12 1.896 1.32 2.784 4.32 2.784h3.048c2.784 0 4.104-.624 4.104-1.752 0-.528-.192-.696-1.104-.984l.048-3.072-.288-.024c-.288 1.344-.648 2.448-.984 3.048-.168.312-.504.36-1.752.36h-2.832c-1.152 0-1.8-.12-1.848-.696-.12-1.008 1.776-3.6 6.072-8.808.552-.024.912-.168 1.128-.384l-2.568-2.112-1.152 1.32h.264ZM11.22 48.032l.192.672h10.896c.336 0 .6-.12.672-.384-.96-.888-2.544-2.184-2.544-2.184l-1.392 1.896H11.22Zm-.096 13.416.192.672h10.92c.336 0 .6-.12.648-.384-.936-.864-2.496-2.16-2.496-2.16l-1.392 1.872h-7.872Zm4.296-16.8v6.792h2.736v-5.832c.624-.096.816-.336.84-.648l-3.576-.312ZM13.356 57.8v.672h7.056V57.8h-7.056Zm-.024-3.432v.672h7.08v-.672h-7.08Zm5.472-3.384v8.28h.432c.816 0 2.088-.48 2.136-.648V52.04c.432-.096.744-.288.888-.456l-2.496-1.896-1.2 1.296h.24Zm-6.552 0v8.688h.36c1.056 0 2.16-.552 2.16-.816v-7.2h5.688v-.672h-5.568l-2.64-1.08v1.08Zm3.144 7.128v9.048h.504c1.416 0 2.232-.432 2.256-.552v-8.496h-2.76Zm9.384-8.76v.672h8.4c.336 0 .576-.12.648-.384-.96-.912-2.592-2.256-2.592-2.256l-1.44 1.968H24.78Zm-.168-4.704c-.408 3.288-1.464 6.624-2.664 8.808l.264.192c2.376-1.584 4.296-4.032 5.592-7.368.552 0 .84-.216.936-.528l-4.128-1.104Zm-6.168 44.2-.24.144c.84 1.104 1.8 2.736 1.968 4.152 2.208 1.776 4.488-2.544-1.728-4.296Zm.12 11.496V80.808l-2.736 1.08v19.272h.504c1.344 0 2.232-.624 2.232-.816Zm7.416-1.752V83.256h5.304v-.672H26.1l-2.904-1.224v18.216h.48c1.2 0 2.304-.672 2.304-.984Zm3.192-16.008h.264v16.608h.456c.984 0 2.304-.576 2.352-.768V83.736c.504-.12.864-.312 1.008-.528l-2.736-2.136-1.344 1.512Zm2.232 13.368h-6.96v.696h6.96v-.696Zm-13.272-9v-.384h-2.856c-.72 3.648-2.136 7.68-4.224 10.464l.264.264c3.36-2.664 5.712-6.168 6.816-10.344Zm4.776-5.592-2.976-2.736c-1.872 1.2-5.568 2.856-8.52 3.744l.072.312c3.408-.144 7.344-.72 9.84-1.344.744.288 1.296.264 1.584.024Zm-2.304 3.216-1.368 1.992h-7.824l.192.672h10.848c.36 0 .6-.12.672-.384-.912-.912-2.52-2.28-2.52-2.28Z" fill="#B04B19"/><rect x="1.25" y="1.25" width="42.5" height="121.5" rx="6.75" stroke="#B04B19" stroke-width="2.5"/><defs><clipPath id="a"><path fill="#fff" transform="translate(10 18)" d="M0 0h25v12H0z"/></clipPath></defs></svg>
